X: 20933
Q: "Slow and with feeling."
M: C
L: 1/16
K: Cm
[|\
c3cc3d c3BG4 | e3e e3g f3ed4 |\
c3cg3c c3BG3E | F3FG3=B c3CC4 |]|\
E3EE3G F2E2D4 | E3DC3E D2G2G4 |
e3ee3g f3ed3f | e3c (ed)(cB) G2c2c4 |[|\
e3eb3e d3ef4 | e3dc3e dg3Hg4 |\


